data/img/usercrunch.svg

<?xml version="1.0" encoding="UTF-8" standalone="no"?>
<!-- Generator: Adobe Illustrator 19.1.0, SVG Export Plug-In . SVG Version: 6.00 Build 0)  -->

<svg
   xmlns:dc="http://purl.org/dc/elements/1.1/"
   xmlns:cc="http://creativecommons.org/ns#"
   xmlns:rdf="http://www.w3.org/1999/02/22-rdf-syntax-ns#"
   xmlns:svg="http://www.w3.org/2000/svg"
   xmlns="http://www.w3.org/2000/svg"
   xmlns:sodipodi="http://sodipodi.sourceforge.net/DTD/sodipodi-0.dtd"
   xmlns:inkscape="http://www.inkscape.org/namespaces/inkscape"
   version="1.1"
   id="Layer_1"
   x="0px"
   y="0px"
   viewBox="0 0 250 91"
   enable-background="new 0 0 181.3 182"
   xml:space="preserve"
   sodipodi:docname="usercrunch.svg"
   width="250"
   height="91"
   inkscape:version="0.92.2 (5c3e80d, 2017-08-06)"><metadata
     id="metadata31"><rdf:RDF><cc:Work
         rdf:about=""><dc:format>image/svg+xml</dc:format><dc:type
           rdf:resource="http://purl.org/dc/dcmitype/StillImage" /><dc:title></dc:title></cc:Work></rdf:RDF></metadata><defs
     id="defs29" /><sodipodi:namedview
     pagecolor="#ffffff"
     bordercolor="#666666"
     borderopacity="1"
     objecttolerance="10"
     gridtolerance="10"
     guidetolerance="10"
     inkscape:pageopacity="0"
     inkscape:pageshadow="2"
     inkscape:window-width="1920"
     inkscape:window-height="1046"
     id="namedview27"
     showgrid="false"
     fit-margin-top="0"
     fit-margin-left="0"
     fit-margin-right="0"
     fit-margin-bottom="0"
     inkscape:zoom="2.8284271"
     inkscape:cx="202.50805"
     inkscape:cy="1.494197"
     inkscape:window-x="-11"
     inkscape:window-y="-11"
     inkscape:window-maximized="1"
     inkscape:current-layer="Layer_1" /><rect
     style="opacity:0.00100002;fill:#ffffff;fill-opacity:1;stroke:none;stroke-width:2.5;stroke-linecap:round;stroke-linejoin:round;stroke-miterlimit:4;stroke-dasharray:none;stroke-dashoffset:0;stroke-opacity:1"
     id="rect4175"
     width="250"
     height="91"
     x="0"
     y="-4.0454324e-014" /><g
     id="g4639"
     transform="translate(0.09375,-0.09375)"><path
       id="path4617"
       d="M 124.90625,10.5625 A 35.03125,35.03125 0 0 0 89.875,45.59375 35.03125,35.03125 0 0 0 124.90625,80.625 35.03125,35.03125 0 0 0 159.9375,45.59375 35.03125,35.03125 0 0 0 124.90625,10.5625 Z M 125,18 v 7.580078 c -11.00154,0 -19.90933,8.901345 -19.91992,19.900391 0,0.0065 -10e-6,0.01302 0,0.01953 0.002,1.357287 0.12484,2.714734 0.4043,3.992188 0.28225,1.290325 0.64376,2.540319 1.16796,3.75 1.25,2.983876 3.22586,5.60496 5.68555,7.621093 0.48387,0.403227 1.009,0.766001 1.5332,1.128907 1.04839,0.725808 2.17704,1.331273 3.38672,1.855468 2.37904,1.008066 5.00025,1.57157 7.74219,1.53125 v 0.04102 c 11.00809,0 19.91992,-8.911834 19.91992,-19.919922 H 152.5 C 152.5,60.701645 140.20165,73 125,73 V 72.95898 C 109.81211,72.958984 97.524172,60.682643 97.501953,45.5 H 97.5 c 0,-0.0065 -5e-6,-0.01298 0,-0.01953 -6e-6,-0.0072 0,-0.01429 0,-0.02148 h 0.002 C 97.524202,30.276367 109.81213,18 125,18 Z"
       style="opacity:0.478;fill:#ffffff;fill-opacity:0.99130435;stroke:none;stroke-width:0.99712723;stroke-linecap:round;stroke-miterlimit:4;stroke-dasharray:none;stroke-opacity:0.00869565"
       inkscape:connector-curvature="0" /><path
       style="opacity:0.66100003;fill:#ffffff;stroke-width:0.4032267"
       inkscape:connector-curvature="0"
       id="path22"
       d="m 125,25.580585 v -7.580662 c -15.20164,0 -27.500058,12.298414 -27.500058,27.500061 h 7.580658 c 0,-11.008089 8.91131,-19.919399 19.9194,-19.919399 z" /><path
       style="fill:#ffffff;stroke-width:0.4032267"
       inkscape:connector-curvature="0"
       id="path2"
       d="m 144.9194,45.499984 c 0,11.008088 -8.91131,19.919398 -19.9194,19.919398 v 7.580662 c 15.20165,0 27.50007,-12.298415 27.50007,-27.50006 z" /><path
       style="opacity:0.34200003;fill:#ffffff;stroke-width:0.4032267"
       inkscape:connector-curvature="0"
       id="path18"
       d="m 117.25805,63.846798 c -1.20968,-0.524195 -2.33871,-1.129035 -3.3871,-1.854843 -0.5242,-0.362904 -1.04839,-0.725808 -1.53226,-1.129035 -2.45969,-2.016133 -4.4355,-4.637107 -5.6855,-7.620983 -0.5242,-1.20968 -0.8871,-2.459683 -1.16936,-3.750009 -0.28226,-1.290325 -0.40323,-2.661296 -0.40323,-4.032267 h -7.580658 c 0,15.201646 12.298418,27.50006 27.500058,27.50006 v -7.580662 c -2.74194,0.04032 -5.36291,-0.524195 -7.74195,-1.532261 z" /></g></svg>

<?xml version="1.0" encoding="UTF-8"?>
<svg enable-background="new 0 0 181.3 182" version="1.1" viewBox="0 0 250 91" xml:space="preserve" xmlns="http://www.w3.org/2000/svg" xmlns:cc="http://creativecommons.org/ns#" xmlns:dc="http://purl.org/dc/elements/1.1/" xmlns:rdf="http://www.w3.org/1999/02/22-rdf-syntax-ns#"><metadata><rdf:RDF><cc:Work rdf:about=""><dc:format>image/svg+xml</dc:format><dc:type rdf:resource="http://purl.org/dc/dcmitype/StillImage"/><dc:title/></cc:Work></rdf:RDF></metadata><rect y="-4.0454e-14" width="250" height="91" fill="#fff" opacity=".001"/><g transform="translate(.09375 -.09375)" fill="#fff"><path d="m124.91 10.562a35.031 35.031 0 0 0-35.031 35.031 35.031 35.031 0 0 0 35.031 35.031 35.031 35.031 0 0 0 35.031-35.031 35.031 35.031 0 0 0-35.031-35.031zm0.09375 7.4375v7.5801c-11.002 0-19.909 8.9013-19.92 19.9 0 0.0065-1e-5 0.01302 0 0.01953 2e-3 1.3573 0.12484 2.7147 0.4043 3.9922 0.28225 1.2903 0.64376 2.5403 1.168 3.75 1.25 2.9839 3.2259 5.605 5.6856 7.6211 0.48387 0.40323 1.009 0.766 1.5332 1.1289 1.0484 0.72581 2.177 1.3313 3.3867 1.8555 2.379 1.0081 5.0002 1.5716 7.7422 1.5312v0.04102c11.008 0 19.92-8.9118 19.92-19.92h7.5801c0 15.202-12.298 27.5-27.5 27.5v-0.04102c-15.188 4e-6 -27.476-12.276-27.498-27.459h-0.001953c0-0.0065-5e-6 -0.01298 0-0.01953-6e-6 -0.0072 0-0.01429 0-0.02148h2e-3c0.022202-15.183 12.31-27.459 27.498-27.459z" fill-opacity=".9913" opacity=".478"/><path d="m125 25.581v-7.5807c-15.202 0-27.5 12.298-27.5 27.5h7.5807c0-11.008 8.9113-19.919 19.919-19.919z" opacity=".661" stroke-width=".40323"/><path d="m144.92 45.5c0 11.008-8.9113 19.919-19.919 19.919v7.5807c15.202 0 27.5-12.298 27.5-27.5z" stroke-width=".40323"/><path d="m117.26 63.847c-1.2097-0.5242-2.3387-1.129-3.3871-1.8548-0.5242-0.3629-1.0484-0.72581-1.5323-1.129-2.4597-2.0161-4.4355-4.6371-5.6855-7.621-0.5242-1.2097-0.8871-2.4597-1.1694-3.75-0.28226-1.2903-0.40323-2.6613-0.40323-4.0323h-7.5807c0 15.202 12.298 27.5 27.5 27.5v-7.5807c-2.7419 0.04032-5.3629-0.5242-7.742-1.5323z" opacity=".342" stroke-width=".40323"/></g></svg>
